X:1
T:Dansa liten piga efter Elsa Siljebo
R:[[!Polska]] ([[!Visa]])
Z:Anton Teljebäck 2007-09-05
S:efter Elsa Siljebo
O:Fredrika, Lappland
M:3/4
L:1/8
K:Dm
D>D F<F A>A | d>e d<^c A2 | (3A2=c2=B2 G>A | (3_B2A2F2 D2 |
w:Dan-sa li-tn pi-ga, spe-la li-tn dräng, låt låt-n gå på fi-o-la-sträng, 
D>F  z>(E D)>^C | E2 D4 :: D>D F<F A>D | ^C>D (3EFE D2 |
w:he tötjt vi va se ro-lit
D>D F<F A>D | ^C>D (3EFE D2 | D>F- z>(E D)>^C | E2 D4 :|

